X:1
T:Wake Every Tuneful String
T:Wake Every Tuneful String
T:Robert Lowry
T:Frances Jane (Fanny) Crosby, 1879
T:Public Domain Courtesy of the Cyber Hymnal™
C:Robert Lowry
Z:Public Domain
Z:Courtesy of the Cyber Hymnal™
%%score ( 1 2 ) ( 3 4 )
L:1/8
Q:1/4=115
M:3/4
K:G
V:1 treble 
V:2 treble 
V:3 bass 
V:4 bass 
V:1
 [GB]2 [DG]2 [GB]2 | [Ac]3 [GB] [FA]2 | [FA]2 [DF]2 [FA]2 | [GB]3 [FA] G2 | [EG]2 ([CE]2 EG) | %5
w: 1.~Wake ev- ery|tune- ful string,|Let ev- ery|crea- ture sing,|Praise ye, * *|
w: 2.~Great His e-|ter- nal name,|Now and for|aye the same;|Praise ye, * *|
w: 3.~He spake, and|it was done,|His arm the|vic- tory won;|Praise ye, * *|
w: 4.~An- gels a-|round His throne,|Mak- ing His|won- ders known,|Praise ye, * *|
 [DG]2 ([B,D]2 GB) | [Gd]2 [Fc]2 [GB]2 | [FA]6 | [Ac]2 [GB]2 [FA]2 | [GB]3 [Ge] [Gd]2 | %10
w: praise ye, * *|Praise ye the|Lord;|Mak- er of|earth and sea,|
w: praise ye, * *|Praise ye the|Lord;|Firm as the|mount- ain band|
w: praise ye, * *|Praise ye the|Lord;|He, from se-|pul- chral night|
w: praise ye, * *|Praise ye the|Lord;|O ye re-|deemed on high,|
 [Ac]2 [GB]2 [FA]2 | [GB]3 [Ge] [Gd]2 | [Ge]2 [Ge]2 [Ge]2 | [Gd]3 [Gc] [GB]2 | [Ac]2 [GB]2 [FA]2 | %15
w: We lift our|hearts to Thee,|With loft- y|mel- o- dy;|Praise ye the|
w: Gird- ing the|fer- tile land,|His truth shall|ev- er stand;|Praise ye the|
w: Lift- ing the|soul to light,|Crowns it with|glo- ry bright;|Praise ye the|
w: Down thro’ the|a- zure sky|Ech- o the|glad re- ply—|Praise ye the|
 G6 |] %16
w: Lord.|
w: Lord.|
w: Lord.|
w: Lord.|
V:2
 x6 | x6 | x6 | x4 G2 | x6 | x6 | x6 | x6 | x6 | x6 | x6 | x6 | x6 | x6 | x6 | G6 |] %16
V:3
 [G,D]2 [G,B,]2 [G,D]2 | [D,D]3 [D,D] [D,D]2 | [D,D]2 [D,A,]2 [D,D]2 | [D,D]3 [D,C] [G,B,]2 | %4
 [C,C]2 [C,G,]2 z2 | [G,B,]2 G,2 z2 | [B,D]2 [A,D]2 [G,D]2 | [D,D]6 | [D,D]2 [D,D]2 [D,D]2 | %9
 [G,D]3 [G,C] [G,B,]2 | [D,D]2 [D,D]2 [D,D]2 | [G,D]3 [G,C] [G,B,]2 | [C,C]2 C2 C2 | %13
 [G,B,]3 [G,E] [G,D]2 | [C,E]2 [D,D]2 [D,C]2 | [G,,B,]6 |] %16
V:4
 x6 | x6 | x6 | x6 | x6 | x2 G,2 x2 | x6 | x6 | x6 | x6 | x6 | x6 | x2 (C,D,) (E,F,) | x6 | x6 | %15
 x6 |] %16

